public/assets/notifications-icon.svg

<svg width="41" height="41" viewBox="0 0 41 41" fill="none" xmlns="http://www.w3.org/2000/svg">
<g id="notifications_black_24dp 1">
<path id="Vector" d="M20.8919 36.7422C22.7253 36.7422 24.2253 35.2422 24.2253 33.4089H17.5586C17.5586 35.2422 19.0419 36.7422 20.8919 36.7422ZM30.8919 26.7422V18.4089C30.8919 13.2922 28.1586 9.00885 23.3919 7.87552V6.74219C23.3919 5.35885 22.2753 4.24219 20.8919 4.24219C19.5086 4.24219 18.3919 5.35885 18.3919 6.74219V7.87552C13.6086 9.00885 10.8919 13.2755 10.8919 18.4089V26.7422L7.55859 30.0755V31.7422H34.2253V30.0755L30.8919 26.7422Z" fill="#FF6B00"/>
</g>
</svg>

<svg xmlns="http://www.w3.org/2000/svg" width="41" height="41" fill="none" xmlns:v="https://vecta.io/nano"><path d="M20.892 36.742c1.833 0 3.333-1.5 3.333-3.333h-6.667c0 1.833 1.483 3.333 3.333 3.333zm10-10v-8.333c0-5.117-2.733-9.4-7.5-10.533V6.742c0-1.383-1.117-2.5-2.5-2.5s-2.5 1.117-2.5 2.5v1.133c-4.783 1.133-7.5 5.4-7.5 10.533v8.333l-3.333 3.333v1.667h26.667v-1.667l-3.333-3.333z" fill="#ff6b00"/></svg>
